X:241
T:Andy McGann's
R:reel
M:4/4
L:1/8
K:Cmaj
gf |: eccB cGEG | FEDC B,DGF | EG (3GAG FAdc | Bg^fg agfg |
eccB cGEG | FEDC B,DGF | EG (3GAG FAdc | Bdgf ec c2 ::
c2gc ecgc |(3cdc ag ^fgdB | c2gc ecgc | BG (3GAG BcdB |
c2gc ecgc | c2ag ^fgdB | cg(3gag eg (3gag | ag^fa g2z2 :|
